assets/images/avatar/Avatar 12.svg

<svg fill="none" height="128" viewBox="0 0 128 128" width="128" xmlns="http://www.w3.org/2000/svg" xmlns:xlink="http://www.w3.org/1999/xlink"><mask id="a" height="122" maskUnits="userSpaceOnUse" width="126" x="1" y="3"><path clip-rule="evenodd" d="m61.2571 3.6591c18.6084.18803 35.9619 8.8381 50.7229 30.1189 11.568 14.4796 18.039 33.2539 13.159 51.1077-4.682 17.1313-20.2 28.3073-36.701 35.0313-15.1312 6.166-31.4811 5.097-46.6054-1.085-16.6067-6.788-33.38614-16.516-38.42846-33.673-5.33753-18.1611 1.20039-37.6305 13.14786-52.3453 7.8289-15.4403 25.8686-29.34493 44.7051-29.1546z" fill="#eff6f7" fill-rule="evenodd"/></mask><g mask="url(#a)"><path clip-rule="evenodd" d="m64.8728 9.4525c18.6084.18802 35.5202 9.8236 47.1072 24.3255 11.568 14.4796 18.039 33.2539 13.159 51.1077-4.682 17.1313-20.2 28.3073-36.701 35.0313-15.1312 6.166-31.4811 5.097-46.6054-1.085-16.6067-6.788-33.38614-16.516-38.42846-33.673-5.33753-18.1611 1.20039-37.6305 13.14786-52.3453 11.8439-14.5872 29.4843-23.55154 48.3208-23.3612z" fill="#eff6f7" fill-rule="evenodd"/><path d="m108.236 101.878c-10.2185-5.3515-5.29-2.7428-17.0665-8.2651-9.664-4.5318-11.6267-12.9859-11.6267-21.4491 0-6.9486-7.1771-10.7916-14.5889-11.7638-7.4118.9722-14.589 4.8152-14.589 11.7638 0 8.4632-1.9657 16.9173-11.6266 21.4491-11.7669 5.5223-8.2286 2.9136-18.4442 8.2651-12.27888 6.431-14.93335 14.909-17.24649 26.493h122.43539c-2.31-11.584-4.971-20.062-17.247-26.493z" fill="#a9b4c6"/><path d="m125.483 128.371h-122.42624c2.30705-11.581 4.97067-20.062 17.24344-26.49 4.0838-2.1332 5.9642-3.0049 7.5032-3.6205 4.3795 5.3025 16.4389 12.6295 36.3581 12.2845 20.2759.345 32.4054-7.171 36.6445-12.4948 1.347.64 2.911 1.4568 7.43 3.8218 12.276 6.437 14.937 14.912 17.247 26.499z" fill="#e7baef"/><g fill="#f9f3fa"><path d="m90.243 109.144c4.0869.512 7.9482.993 11.682 1.261 8.838.637 13.409.491 17.091.366-.272-.369-.549-.734-.842-1.094-.134-.168-.28-.335-.42-.5-.204-.238-.399-.478-.61-.71-5.018.122-10.039-.018-15.043-.421-3.6568-.265-7.5029-.743-11.5593-1.252l-2.2613-.281c-1.7102.688-3.4572 1.28-5.2328 1.774 2.4198.265 4.8213.561 7.1954.857z"/><path d="m8.2682 127.326c5.2206-1.079 8.9935-1.859 20.992-2.743 8.3048-.61 17.4811-.305 26.3558.015 3.0293.107 6.0404.21 9.0636.28 10.4198-.259 21.4309.064 34.6606 1.015 4.0468.305 7.1708.5 9.7158.668 7.598.503 9.996.661 16.399 1.7-.17-.853-.341-1.673-.518-2.477-5.918-.936-8.533-1.11-15.723-1.585-2.541-.168-5.662-.375-9.7031-.668-13.309-.957-24.381-1.283-34.8343-1.018-2.9562-.07-5.9581-.176-8.9783-.28-8.9387-.305-18.1791-.64-26.6149 0-12.1508.914-15.9878 1.695-21.29367 2.792-1.2861.265-2.64229.545-4.20877.844-.16152.747-.30475 1.463-.45409 2.188-.02133.107-.04572.21-.06706.305 1.99924-.381 3.65411-.732 5.20839-1.036z"/><path d="m14.6468 118.667c3.6175-.079 8.125-.173 16.1829-.774 2.1089-.155 4.2666-.329 6.4579-.506 9.5146-.765 19.3615-1.557 28.8945-1.334l1.7889-.043c11.8857-.305 23.1254-.582 33.033.131 13.23.951 16.457 1.524 22.068 2.676-.305-.896-.638-1.769-1-2.618-4.797-.954-8.743-1.545-20.897-2.42-10.0238-.719-21.3122-.436-33.265-.137l-1.731.046c-9.6-.226-19.5048.573-29.0804 1.341-2.1851.173-4.3398.347-6.4457.505-7.9969.595-12.4647.689-16.0579.765-2.8556.061-5.20837.113-8.33523.378-.33524.82-.60952 1.625-.89295 2.438 3.63886-.323 6.15008-.381 9.27998-.448z"/><path d="m10.9806 111.216c5.0072-1.088 8.963-1.944 20.7512-2.822 3.8491-.287 7.8019-.509 11.776-.677-1.8504-.59-3.663-1.292-5.4278-2.103-2.1943.125-4.3794.259-6.525.421-11.4316.85-15.6129 1.685-20.419 2.725l-.0793.091c-.387.436-.7588.878-1.1093 1.329-.04266.052-.07924.109-.11886.164-.33219.433-.64914.869-.9478 1.314.73143-.146 1.42626-.296 2.09986-.442z"/></g><path d="m80.1463 79.1733c-.2219-1.1728-.3776-2.3572-.4663-3.5475-.1976-.4368-.3014-.9102-.3048-1.3897-.0366-.5059-.0487-1.1489-.0487-2.0571 0-.3322-.0305-.6522-.061-.9722-.0274-.2103-.0518-.4206-.0884-.6248-9.3196.6096-20.1143.7528-28.7848 1.3197 0 .0944-.0182.1828-.0182.2773 0 5.8788-.957 11.7516-4.7757 16.3108 7.7623 3.0751 26.8618 5.056 34.5479-9.3165z" fill="#51527a"/><path d="m93.9154 21.3478c-.5059.5364-.9508 1.155-1.3653 1.5756-.3216.3753-.7195.6776-1.1672.8868-.4724.1829-1.0911.1402-1.408-.2255-.893-1.0301 1.7371-4.4739 2.2491-5.4857.32-.6308.6461-1.2922.6095-1.9901-.0388-.4433-.2001-.8671-.466-1.2239s-.6258-.6327-1.0395-.7967c-.4352-.1726-.9044-.2426-1.3711-.2045-.4667.038-.9184.1831-1.3199.424-.9905.6095-1.4629 1.6975-1.8774 2.7185-.3413.8411-2.0785 6.147-4.3398 3.9619-.4541-.4389-.3047-1.1429-.1371-1.725.6918-2.3284 2.6666-5.8453 1.3348-8.1493-.8137-1.41108-2.8434-2.28269-4.4099-1.5726-1.1154.5059-1.728 1.6335-2.0236 2.7429-.515 1.923-1.0362 3.6022-2.7124 4.992-.3309.3093-.7414.5204-1.1855.6095-1.7402.2346-2.6332-2.173-2.5631-3.3524.0915-1.5665.9631-3.005 1.3166-4.54095.3536-1.536-.0609-3.46819-1.6579-4.06248-1.7585-.65524-3.6571.78934-4.4373 2.3741-.9143 1.88953-.2743 4.05333-1.7585 5.81483-.2819.3545-.6363.6448-1.0394.8513-.4031.2066-.8457.3247-1.2981.3464-2.4381 0-2.2004-2.7428-1.981-4.1996.1524-1.0423.3383-2.09369.1768-3.13293-.451-2.90438-3.9162-4.4221-5.9489-1.62438-.9783 1.344-1.0637 3.04761-1.1155 4.65981l-.1005 3.0659c.0251.6581-.0989 1.3135-.3627 1.917-.1574.3118-.4032.5704-.7068.7433s-.6513.2525-.9999.2288c-.8899-.1188-1.3623-1.0026-1.6823-1.7676-.5851-1.3897-1.1581-4.4221-2.368-5.42169-1.1246-.93257-2.8861.08533-3.3524 1.19769-.4236 1.0332-.2011 2.1821.058 3.2579.2725 1.129.3335 2.2987.1798 3.4499-.1738 1.149-1.4324 2.7063-2.4381.9996-.3901-.6674-.5151-1.4323-.6797-2.1729-.1166-.7645-.4425-1.4817-.9417-2.0724-1.219-1.2861-3.1695-.7893-4.0472.509s-.8198 2.9226-.4388 4.3245c.4693 1.728 1.4079 3.3311 1.8072 5.0713.2407 1.0514.067 3.9223-1.9261 2.8312-.4684-.2945-.8494-.7091-1.1032-1.2007-.2395-.4845-.5475-.932-.9143-1.3288-1.6976-1.5878-2.9075.5943-2.9075 1.9992 0 1.7402.64 3.3067 1.6945 4.7482 1.1581 1.5878 2.6088 2.9745 3.8065 4.5349.5059.6583 1.219 1.3196.7314 2.1333s-1.5665.6857-2.3284.1768c-.7619-.509-1.0788-1.5055-1.795-1.9322-.96-.573-2.1547.2438-2.3802 1.1246-.2012.7954.1463 1.6335.6735 2.2918s2.8343 2.9104 3.4438 3.4834c5.4675 5.1078 3.5962 10.7276 9.1856 15.5428 2.7641 2.3772 7.1588 2.3101 10.947 2.5814 6.6155.4728 13.2543.5267 19.8766.1615 8.4845-.4602 10.6331-1.0423 14.6011-8.8381 1.4446-2.8434 1.9474-6.0129 3.2213-8.9204.8168-1.8743 2.1334-3.4925 3.4408-5.1078 1.1368-1.411 2.7764-3.139 3.072-4.928.113-.482.1244-.9823.0335-1.4689-.0594-.252-.1887-.4821-.3731-.6638s-.4164-.3076-.6692-.3633c-.3637-.0485-.7327.036-1.0392.2377-1.1215.6918-1.8895 2.048-2.7124 3.008-.2425.3174-.5397.5888-.8777.8016-1.219.6613-1.7311-.509-1.8072-1.3898-.0976-1.1276.4602-2.2979 1.152-3.2121 1.6487-2.173 3.3341-4.3277 4.9493-6.525.8472-1.152 1.4689-3.9619-1.0332-3.8766-.7588.0122-1.3927.5059-1.9535 1.0972z" fill="#28213d"/><path d="m85.3882 44.0983c-.6766-4.1021-4.5897-4.8762-6.6469-8.0519-2.7703-4.2666-10.4625-5.3577-14.4945-4.9249-4.032-.4328-11.7242.6644-14.4944 4.9249-2.0572 3.1635-5.9703 3.962-6.6469 8.0519-.4236 2.5782.6095 5.376.3413 9.4476-.3596 5.5558.7162 7.5764 2.6454 12.867 4.7207 12.9555 12.7451 17.6549 14.147 17.9475 1.067.1496 2.1441.2148 3.2213.195.0345.0222.0748.0339.1159.0335.0391.0091.0797.0091.1188 0h.1189c.1434-.0198.2879-.0299.4327-.0304h.4358c.0381.009.0778.009.1159 0h.1188c.0376-.0161.078-.0244.1189-.0244 1.155-.0427 2.4381-.0549 3.2182-.2195 1.4019-.3047 9.4263-4.992 14.1471-17.9474 1.9292-5.2907 3.0049-7.3143 2.6453-12.867-.2499-4.0259.765-6.8237.3414-9.4019z" fill="#a9b4c6"/><path d="m89.6731 58.3946c-.7314 2.048-2.2004 4.6263-4.0046 5.7905-1.7584 1.1398-3.0049.2499-3.1512-1.9353-.1524-2.24.3566-6.0373 1.9413-7.683 1.5848-1.6457 4.7117-1.5787 5.5193.9783.2377.771.064 1.795-.3048 2.8495z" fill="#a9b4c6"/><path d="m39.2991 58.3946c.7344 2.048 2.2003 4.6263 4.0045 5.7905s3.008.2499 3.1543-1.9353c.1493-2.24-.3596-6.0373-1.9413-7.683s-4.7116-1.5787-5.5223.9783c-.2438.771-.0701 1.795.3048 2.8495z" fill="#a9b4c6"/></g></svg>

<svg width="128" height="128" viewBox="0 0 128 128" fill="none" xmlns="http://www.w3.org/2000/svg">
<mask id="mask0_457_1645" style="mask-type:alpha" maskUnits="userSpaceOnUse" x="1" y="3" width="126" height="122">
<path fill-rule="evenodd" clip-rule="evenodd" d="M61.2571 3.6591C79.8655 3.84713 97.219 12.4972 111.98 33.778C123.548 48.2576 130.019 67.0319 125.139 84.8857C120.457 102.017 104.939 113.193 88.438 119.917C73.3068 126.083 56.9569 125.014 41.8326 118.832C25.2259 112.044 8.44646 102.316 3.40414 85.159C-1.93339 66.9979 4.60453 47.5285 16.552 32.8137C24.3809 17.3734 42.4206 3.46877 61.2571 3.6591Z" fill="#EFF6F7"/>
</mask>
<g mask="url(#mask0_457_1645)">
<path fill-rule="evenodd" clip-rule="evenodd" d="M64.8728 9.4525C83.4812 9.64052 100.393 19.2761 111.98 33.778C123.548 48.2576 130.019 67.0319 125.139 84.8857C120.457 102.017 104.939 113.193 88.438 119.917C73.3068 126.083 56.9569 125.014 41.8326 118.832C25.2259 112.044 8.44646 102.316 3.40414 85.159C-1.93339 66.9979 4.60453 47.5285 16.552 32.8137C28.3959 18.2265 46.0363 9.26216 64.8728 9.4525Z" fill="#EFF6F7"/>
<path d="M108.236 101.878C98.0175 96.5265 102.946 99.1352 91.1695 93.6129C81.5055 89.0811 79.5428 80.627 79.5428 72.1638C79.5428 65.2152 72.3657 61.3722 64.9539 60.4C57.5421 61.3722 50.3649 65.2152 50.3649 72.1638C50.3649 80.627 48.3992 89.0811 38.7383 93.6129C26.9714 99.1352 30.5097 96.5265 20.2941 101.878C8.01522 108.309 5.36075 116.787 3.04761 128.371H125.483C123.173 116.787 120.512 108.309 108.236 101.878Z" fill="#A9B4C6"/>
<path d="M125.483 128.371H3.05676C5.36381 116.79 8.02743 108.309 20.3002 101.881C24.384 99.7478 26.2644 98.8761 27.8034 98.2605C32.1829 103.563 44.2423 110.89 64.1615 110.545C84.4374 110.89 96.5669 103.374 100.806 98.0502C102.153 98.6902 103.717 99.507 108.236 101.872C120.512 108.309 123.173 116.784 125.483 128.371Z" fill="#E7BAEF"/>
<path d="M90.243 109.144C94.3299 109.656 98.1912 110.137 101.925 110.405C110.763 111.042 115.334 110.896 119.016 110.771C118.744 110.402 118.467 110.037 118.174 109.677C118.04 109.509 117.894 109.342 117.754 109.177C117.55 108.939 117.355 108.699 117.144 108.467C112.126 108.589 107.105 108.449 102.101 108.046C98.4442 107.781 94.5981 107.303 90.5417 106.794L88.2804 106.513C86.5702 107.201 84.8232 107.793 83.0476 108.287C85.4674 108.552 87.8689 108.848 90.243 109.144Z" fill="#F9F3FA"/>
<path d="M8.2682 127.326C13.4888 126.247 17.2617 125.467 29.2602 124.583C37.565 123.973 46.7413 124.278 55.616 124.598C58.6453 124.705 61.6564 124.808 64.6796 124.878C75.0994 124.619 86.1105 124.942 99.3402 125.893C103.387 126.198 106.511 126.393 109.056 126.561C116.654 127.064 119.052 127.222 125.455 128.261C125.285 127.408 125.114 126.588 124.937 125.784C119.019 124.848 116.404 124.674 109.214 124.199C106.673 124.031 103.552 123.824 99.5109 123.531C86.2019 122.574 75.1299 122.248 64.6766 122.513C61.7204 122.443 58.7185 122.337 55.6983 122.233C46.7596 121.928 37.5192 121.593 29.0834 122.233C16.9326 123.147 13.0956 123.928 7.78973 125.025C6.50363 125.29 5.14744 125.57 3.58096 125.869C3.41944 126.616 3.27621 127.332 3.12687 128.057C3.10554 128.164 3.08115 128.267 3.05981 128.362C5.05905 127.981 6.71392 127.63 8.2682 127.326Z" fill="#F9F3FA"/>
<path d="M14.6468 118.667C18.2643 118.588 22.7718 118.494 30.8297 117.893C32.9386 117.738 35.0963 117.564 37.2876 117.387C46.8022 116.622 56.6491 115.83 66.1821 116.053L67.971 116.01C79.8567 115.705 91.0964 115.428 101.004 116.141C114.234 117.092 117.461 117.665 123.072 118.817C122.767 117.921 122.434 117.048 122.072 116.199C117.275 115.245 113.329 114.654 101.175 113.779C91.1512 113.06 79.8628 113.343 67.91 113.642L66.179 113.688C56.579 113.462 46.6742 114.261 37.0986 115.029C34.9135 115.202 32.7588 115.376 30.6529 115.534C22.656 116.129 18.1882 116.223 14.595 116.299C11.7394 116.36 9.38663 116.412 6.25977 116.677C5.92453 117.497 5.65025 118.302 5.36682 119.115C9.00568 118.792 11.5169 118.734 14.6468 118.667Z" fill="#F9F3FA"/>
<path d="M10.9806 111.216C15.9878 110.128 19.9436 109.272 31.7318 108.394C35.5809 108.107 39.5337 107.885 43.5078 107.717C41.6574 107.127 39.8448 106.425 38.08 105.614C35.8857 105.739 33.7006 105.873 31.555 106.035C20.1234 106.885 15.9421 107.72 11.136 108.76L11.0567 108.851C10.6697 109.287 10.2979 109.729 9.9474 110.18C9.90474 110.232 9.86816 110.289 9.82854 110.344C9.49635 110.777 9.1794 111.213 8.88074 111.658C9.61217 111.512 10.307 111.362 10.9806 111.216Z" fill="#F9F3FA"/>
<path d="M80.1463 79.1733C79.9244 78.0005 79.7687 76.8161 79.68 75.6258C79.4824 75.189 79.3786 74.7156 79.3752 74.2361C79.3386 73.7302 79.3265 73.0872 79.3265 72.179C79.3265 71.8468 79.296 71.5268 79.2655 71.2068C79.2381 70.9965 79.2137 70.7862 79.1771 70.582C69.8575 71.1916 59.0628 71.3348 50.3923 71.9017C50.3923 71.9961 50.3741 72.0845 50.3741 72.179C50.3741 78.0578 49.4171 83.9306 45.5984 88.4898C53.3607 91.5649 72.4602 93.5458 80.1463 79.1733Z" fill="#51527A"/>
<path d="M93.9154 21.3478C93.4095 21.8842 92.9646 22.5028 92.5501 22.9234C92.2285 23.2987 91.8306 23.601 91.3829 23.8102C90.9105 23.9931 90.2918 23.9504 89.9749 23.5847C89.0819 22.5546 91.712 19.1108 92.224 18.099C92.544 17.4682 92.8701 16.8068 92.8335 16.1089C92.7947 15.6656 92.6334 15.2418 92.3675 14.885C92.1016 14.5282 91.7417 14.2523 91.328 14.0883C90.8928 13.9157 90.4236 13.8457 89.9569 13.8838C89.4902 13.9218 89.0385 14.0669 88.637 14.3078C87.6465 14.9173 87.1741 16.0053 86.7596 17.0263C86.4183 17.8674 84.6811 23.1733 82.4198 20.9882C81.9657 20.5493 82.1151 19.8453 82.2827 19.2632C82.9745 16.9348 84.9493 13.4179 83.6175 11.1139C82.8038 9.70282 80.7741 8.83121 79.2076 9.5413C78.0922 10.0472 77.4796 11.1748 77.184 12.2842C76.669 14.2072 76.1478 15.8864 74.4716 17.2762C74.1407 17.5855 73.7302 17.7966 73.2861 17.8857C71.5459 18.1203 70.6529 15.7127 70.723 14.5333C70.8145 12.9668 71.6861 11.5283 72.0396 9.99235C72.3932 8.45635 71.9787 6.52416 70.3817 5.92987C68.6232 5.27463 66.7246 6.71921 65.9444 8.30397C65.0301 10.1935 65.6701 12.3573 64.1859 14.1188C63.904 14.4733 63.5496 14.7636 63.1465 14.9701C62.7434 15.1767 62.3008 15.2948 61.8484 15.3165C59.4103 15.3165 59.648 12.5737 59.8674 11.1169C60.0198 10.0746 60.2057 9.02321 60.0442 7.98397C59.5932 5.07959 56.128 3.56187 54.0953 6.35959C53.117 7.70359 53.0316 9.4072 52.9798 11.0194L52.8793 14.0853C52.9044 14.7434 52.7804 15.3988 52.5166 16.0023C52.3592 16.3141 52.1134 16.5727 51.8098 16.7456C51.5062 16.9185 51.1585 16.9981 50.8099 16.9744C49.92 16.8556 49.4476 15.9718 49.1276 15.2068C48.5425 13.8171 47.9695 10.7847 46.7596 9.78511C45.635 8.85254 43.8735 9.87044 43.4072 10.9828C42.9836 12.016 43.2061 13.1649 43.4652 14.2407C43.7377 15.3697 43.7987 16.5394 43.645 17.6906C43.4712 18.8396 42.2126 20.3969 41.2069 18.6902C40.8168 18.0228 40.6918 17.2579 40.5272 16.5173C40.4106 15.7528 40.0847 15.0356 39.5855 14.4449C38.3665 13.1588 36.416 13.6556 35.5383 14.9539C34.6606 16.2522 34.7185 17.8765 35.0995 19.2784C35.5688 21.0064 36.5074 22.6095 36.9067 24.3497C37.1474 25.4011 36.9737 28.272 34.9806 27.1809C34.5122 26.8864 34.1312 26.4718 33.8774 25.9802C33.6379 25.4957 33.3299 25.0482 32.9631 24.6514C31.2655 23.0636 30.0556 25.2457 30.0556 26.6506C30.0556 28.3908 30.6956 29.9573 31.7501 31.3988C32.9082 32.9866 34.3589 34.3733 35.5566 35.9337C36.0625 36.592 36.7756 37.2533 36.288 38.067C35.8004 38.8807 34.7215 38.7527 33.9596 38.2438C33.1977 37.7348 32.8808 36.7383 32.1646 36.3116C31.2046 35.7386 30.0099 36.5554 29.7844 37.4362C29.5832 38.2316 29.9307 39.0697 30.4579 39.728C30.9851 40.3863 33.2922 42.6384 33.9017 43.2114C39.3692 48.3192 37.4979 53.939 43.0873 58.7542C45.8514 61.1314 50.2461 61.0643 54.0343 61.3356C60.6498 61.8084 67.2886 61.8623 73.9109 61.4971C82.3954 61.0369 84.544 60.4548 88.512 52.659C89.9566 49.8156 90.4594 46.6461 91.7333 43.7386C92.5501 41.8643 93.8667 40.2461 95.1741 38.6308C96.3109 37.2198 97.9505 35.4918 98.2461 33.7028C98.3591 33.2208 98.3705 32.7205 98.2796 32.2339C98.2202 31.9819 98.0909 31.7518 97.9065 31.5701C97.7221 31.3884 97.4901 31.2625 97.2373 31.2068C96.8736 31.1583 96.5046 31.2428 96.1981 31.4445C95.0766 32.1363 94.3086 33.4925 93.4857 34.4525C93.2432 34.7699 92.946 35.0413 92.608 35.2541C91.389 35.9154 90.8769 34.7451 90.8008 33.8643C90.7032 32.7367 91.261 31.5664 91.9528 30.6522C93.6015 28.4792 95.2869 26.3245 96.9021 24.1272C97.7493 22.9752 98.371 20.1653 95.8689 20.2506C95.1101 20.2628 94.4762 20.7565 93.9154 21.3478Z" fill="#28213D"/>
<path d="M85.3882 44.0983C84.7116 39.9962 80.7985 39.2221 78.7413 36.0464C75.971 31.7798 68.2788 30.6887 64.2468 31.1215C60.2148 30.6887 52.5226 31.7859 49.7524 36.0464C47.6952 39.2099 43.7821 40.0084 43.1055 44.0983C42.6819 46.6765 43.715 49.4743 43.4468 53.5459C43.0872 59.1017 44.163 61.1223 46.0922 66.4129C50.8129 79.3684 58.8373 84.0678 60.2392 84.3604C61.3062 84.51 62.3833 84.5752 63.4605 84.5554C63.495 84.5776 63.5353 84.5893 63.5764 84.5889C63.6155 84.598 63.6561 84.598 63.6952 84.5889C63.7348 84.5889 63.7714 84.5889 63.8141 84.5889C63.9575 84.5691 64.102 84.559 64.2468 84.5585H64.6826C64.7207 84.5675 64.7604 84.5675 64.7985 84.5585C64.8411 84.5585 64.8746 84.5585 64.9173 84.5585C64.9549 84.5424 64.9953 84.5341 65.0362 84.5341C66.1912 84.4914 67.4743 84.4792 68.2544 84.3146C69.6563 84.0099 77.6807 79.3226 82.4015 66.3672C84.3307 61.0765 85.4064 59.0529 85.0468 53.5002C84.7969 49.4743 85.8118 46.6765 85.3882 44.0983Z" fill="#A9B4C6"/>
<path d="M89.6731 58.3946C88.9417 60.4426 87.4727 63.0209 85.6685 64.1851C83.9101 65.3249 82.6636 64.435 82.5173 62.2498C82.3649 60.0098 82.8739 56.2125 84.4586 54.5668C86.0434 52.9211 89.1703 52.9881 89.9779 55.5451C90.2156 56.3161 90.0419 57.3401 89.6731 58.3946Z" fill="#A9B4C6"/>
<path d="M39.2991 58.3946C40.0335 60.4426 41.4994 63.0209 43.3036 64.1851C45.1078 65.3493 46.3116 64.435 46.4579 62.2498C46.6072 60.0098 46.0983 56.2125 44.5166 54.5668C42.9349 52.9211 39.805 52.9881 38.9943 55.5451C38.7505 56.3161 38.9242 57.3401 39.2991 58.3946Z" fill="#A9B4C6"/>
</g>
</svg>
